src/img/icons/pending.svg

<svg width="32" height="32" viewBox="0 0 32 32" fill="none" xmlns="http://www.w3.org/2000/svg">
<path d="M8.62974 17.8421C9.14111 17.8421 9.57621 17.6632 9.93505 17.3053C10.2941 16.9475 10.4737 16.513 10.4737 16.0018C10.4737 15.4905 10.2948 15.0554 9.93689 14.6965C9.57903 14.3374 9.14454 14.1579 8.63342 14.1579C8.12205 14.1579 7.68695 14.3368 7.3281 14.6947C6.96902 15.0525 6.78947 15.487 6.78947 15.9982C6.78947 16.5095 6.9684 16.9446 7.32626 17.3035C7.68412 17.6626 8.11861 17.8421 8.62974 17.8421ZM15.9982 17.8421C16.5095 17.8421 16.9446 17.6632 17.3035 17.3053C17.6626 16.9475 17.8421 16.513 17.8421 16.0018C17.8421 15.4905 17.6632 15.0554 17.3053 14.6965C16.9475 14.3374 16.513 14.1579 16.0018 14.1579C15.4905 14.1579 15.0554 14.3368 14.6965 14.6947C14.3374 15.0525 14.1579 15.487 14.1579 15.9982C14.1579 16.5095 14.3368 16.9446 14.6947 17.3035C15.0525 17.6626 15.487 17.8421 15.9982 17.8421ZM23.3666 17.8421C23.8779 17.8421 24.3131 17.6632 24.6719 17.3053C25.031 16.9475 25.2105 16.513 25.2105 16.0018C25.2105 15.4905 25.0316 15.0554 24.6737 14.6965C24.3159 14.3374 23.8814 14.1579 23.3703 14.1579C22.8589 14.1579 22.4238 14.3368 22.0649 14.6947C21.7059 15.0525 21.5263 15.487 21.5263 15.9982C21.5263 16.5095 21.7052 16.9446 22.0631 17.3035C22.421 17.6626 22.8555 17.8421 23.3666 17.8421ZM16.0026 30C14.0662 30 12.246 29.6326 10.5422 28.8977C8.83839 28.1628 7.35635 27.1655 6.09611 25.9057C4.83586 24.646 3.83805 23.1646 3.10268 21.4615C2.36756 19.7584 2 17.9388 2 16.0026C2 14.0662 2.36744 12.246 3.10232 10.5422C3.83719 8.83839 4.83451 7.35635 6.09426 6.09611C7.35402 4.83586 8.83544 3.83805 10.5385 3.10268C12.2416 2.36756 14.0612 2 15.9974 2C17.9338 2 19.754 2.36744 21.4578 3.10232C23.1616 3.83719 24.6437 4.83451 25.9039 6.09426C27.1641 7.35402 28.1619 8.83544 28.8973 10.5385C29.6324 12.2416 30 14.0612 30 15.9974C30 17.9338 29.6326 19.754 28.8977 21.4578C28.1628 23.1616 27.1655 24.6437 25.9057 25.9039C24.646 27.1641 23.1646 28.1619 21.4615 28.8973C19.7584 29.6324 17.9388 30 16.0026 30ZM16 27.7895C19.2912 27.7895 22.0789 26.6474 24.3632 24.3632C26.6474 22.0789 27.7895 19.2912 27.7895 16C27.7895 12.7088 26.6474 9.92105 24.3632 7.63684C22.0789 5.35263 19.2912 4.21053 16 4.21053C12.7088 4.21053 9.92105 5.35263 7.63684 7.63684C5.35263 9.92105 4.21053 12.7088 4.21053 16C4.21053 19.2912 5.35263 22.0789 7.63684 24.3632C9.92105 26.6474 12.7088 27.7895 16 27.7895Z" fill="#131212"/>
</svg>

<svg xmlns="http://www.w3.org/2000/svg" viewBox="0 0 32 32">
  <path fill="currentColor" d="M8.63 17.842a1.78 1.78 0 0 0 1.305-.537c.36-.357.539-.792.539-1.303a1.78 1.78 0 0 0-.537-1.305 1.772 1.772 0 0 0-1.304-.54 1.78 1.78 0 0 0-1.305.538 1.77 1.77 0 0 0-.539 1.303c0 .511.18.947.537 1.306.358.359.793.538 1.304.538Zm7.368 0a1.78 1.78 0 0 0 1.306-.537 1.77 1.77 0 0 0 .538-1.303 1.78 1.78 0 0 0-.537-1.305 1.771 1.771 0 0 0-1.303-.54 1.78 1.78 0 0 0-1.305.538c-.36.357-.54.792-.54 1.303 0 .511.18.947.538 1.306a1.77 1.77 0 0 0 1.303.538Zm7.369 0a1.78 1.78 0 0 0 1.305-.537 1.77 1.77 0 0 0 .538-1.303 1.78 1.78 0 0 0-.536-1.305 1.771 1.771 0 0 0-1.304-.54 1.78 1.78 0 0 0-1.305.538 1.772 1.772 0 0 0-.539 1.303c0 .511.18.947.537 1.306.358.359.793.538 1.304.538ZM16.003 30c-1.937 0-3.757-.367-5.46-1.102a14.14 14.14 0 0 1-4.447-2.992 14.138 14.138 0 0 1-2.993-4.444C2.368 19.758 2 17.939 2 16.002c0-1.936.367-3.756 1.102-5.46a14.14 14.14 0 0 1 2.992-4.446 14.14 14.14 0 0 1 4.445-2.993C12.242 2.368 14.06 2 15.997 2c1.937 0 3.757.367 5.46 1.102a14.14 14.14 0 0 1 4.447 2.992 14.14 14.14 0 0 1 2.993 4.445C29.632 12.242 30 14.06 30 15.997c0 1.937-.367 3.757-1.102 5.46a14.14 14.14 0 0 1-2.992 4.447 14.14 14.14 0 0 1-4.444 2.993c-1.704.735-3.523 1.103-5.46 1.103ZM16 27.79c3.291 0 6.079-1.143 8.363-3.427S27.79 19.291 27.79 16c0-3.291-1.143-6.079-3.427-8.363S19.291 4.21 16 4.21c-3.291 0-6.079 1.142-8.363 3.426C5.353 9.92 4.21 12.709 4.21 16c0 3.291 1.142 6.079 3.426 8.363C9.92 26.647 12.709 27.79 16 27.79Z"/>
</svg>
